X:0446
T:New Years day.
M:6/8
L:1/8
Q:3/8=120
I: :: ::
Z:Jack Campin * www.campin.me.uk * 2009
K:F
A| FGA   fgf |fFF    F2A|(FGF) (fgf)|gGG G2
A| FGF   fgf |fcb {b}a2g| fed   cAf |cAF F2::
A|(cdc) (ABA)|cdc    A2d| cdc   fga |gGG G2
A|(cdc) (ABA)|c2b {b}a2g| fed   cAf |cAF F2:|
<end>
<start>
